X:6998
T:the Land we live in
O:england
R:Jig
M:6/8
A:Westmorland
D:Sprangeen tape - "Lads of Dunse"
N:P33 2/2
K:D
B|c2D DFD|DFD d2c|Bcd AFA|BGE E2d|\
AFD DFD|DFD B2A|B2c/2d/2 AFd|AFD D2:|
|:g|fef d2e|fga B2A|B>cd AFA|BGE Efg|\
afa geg|fdf ece|dcB AFd|AFD D2:|
